svg/Tango/actions/format-text-strikethrough.svg

<svg xmlns="http://www.w3.org/2000/svg" xmlns:xlink="http://www.w3.org/1999/xlink" viewBox="0 0 48 48"><defs><linearGradient xlink:href="#4" id="8" gradientUnits="userSpaceOnUse" x1="27.675" y1="22.399" x2="16.07" y2="4.92"/><linearGradient xlink:href="#2" id="7" gradientUnits="userSpaceOnUse" x1="39.42" y1="21.459" x2="-24.13" y2="21.5"/><linearGradient xlink:href="#1" id="9" y1="24" x2="0" y2="25.01" gradientUnits="userSpaceOnUse"/><linearGradient xlink:href="#4" id="B" gradientUnits="userSpaceOnUse" x1="29.03" y1="37.445" x2="14.334" y2="10.46"/><linearGradient xlink:href="#3" id="A" y1="27.762" x2="0" y2="20.416" gradientUnits="userSpaceOnUse"/><linearGradient id="6" gradientUnits="userSpaceOnUse" x1="19.892" y1="17.11" x2="21.507" y2="86.7"><stop stop-color="#fff"/><stop offset="1" stop-color="#b3b3b3" stop-opacity="0"/></linearGradient><linearGradient xlink:href="#3" id="C" gradientUnits="userSpaceOnUse" y1="38.963" x2="0" y2="10.25"/><linearGradient id="1"><stop/><stop offset="1" stop-opacity="0"/></linearGradient><linearGradient id="2"><stop stop-color="#fff"/><stop offset="1" stop-color="#fff" stop-opacity="0"/></linearGradient><linearGradient id="4"><stop stop-color="#497fc6"/><stop offset="1" stop-color="#90b3d9"/></linearGradient><linearGradient xlink:href="#2" id="5" gradientUnits="userSpaceOnUse" y1="23.14" x2="0" y2="7.403"/><linearGradient id="3"><stop stop-color="#2a5387"/><stop offset="1" stop-color="#3465a4"/></linearGradient><radialGradient xlink:href="#1" id="0" gradientUnits="userSpaceOnUse" gradientTransform="matrix(1 0 0 .53672 0 16.873)" cx="24.837" cy="36.421" r="15.645"/></defs><g fill-rule="evenodd"><path d="M40.481863 36.421127A15.644737 8.396893 0 1 1 9.192388 36.421127 15.644737 8.396893 0 1 1 40.481863 36.421127" transform="matrix(1.47014 0 0 .53547-12.764 20.915)" opacity=".15" color="#000" fill="url(#0)"/><path d="m20 4.5l-15 37h6l3.25-8h19.5l3.25 8h6l-15-37h-8zm4 5l7.719 19h-15.438l7.719-19z" fill="url(#B)" stroke="url(#C)"/></g><g fill="none"><path d="m10.5 40.5h-3.854l14.04-35h6.671l14.329 35h-3.817l-3.462-8.03-20.88-.101c0 0-3.02 8.132-3.02 8.132z" opacity=".6" stroke="url(#6)"/><path d="m14.689 29.5h18.57l-9.217-22.689-9.352 22.689z" opacity=".467" fill-rule="evenodd" stroke="url(#5)"/></g><g fill-rule="evenodd"><path d="m12.344 22l-1.594 4c0 0 7.094 0 7.094 0l1.625-4h-7.125m16.188 0l1.625 4h7.094l-1.594-4h-7.125" opacity=".165" fill="url(#9)"/><path color="#000" stroke-linecap="round" fill="url(#8)" stroke-linejoin="round" stroke="url(#A)" d="m4.5 20.5h39v3h-39z"/><path d="m5.5 21.5h37" opacity=".8" fill="none" stroke="url(#7)" stroke-linecap="square"/></g></svg>

<?xml version="1.0" encoding="UTF-8" standalone="no"?>
<!-- Created with Inkscape (http://www.inkscape.org/) -->
<svg
   xmlns:dc="http://purl.org/dc/elements/1.1/"
   xmlns:cc="http://creativecommons.org/ns#"
   xmlns:rdf="http://www.w3.org/1999/02/22-rdf-syntax-ns#"
   xmlns:svg="http://www.w3.org/2000/svg"
   xmlns="http://www.w3.org/2000/svg"
   xmlns:xlink="http://www.w3.org/1999/xlink"
   xmlns:sodipodi="http://sodipodi.sourceforge.net/DTD/sodipodi-0.dtd"
   xmlns:inkscape="http://www.inkscape.org/namespaces/inkscape"
   width="48"
   height="48"
   id="svg1306"
   sodipodi:version="0.32"
   inkscape:version="0.46"
   sodipodi:docbase="/home/jimmac/src/cvs/tango-icon-theme/scalable/actions"
   sodipodi:docname="format-text-strikethrough.svg"
   version="1.0"
   inkscape:output_extension="org.inkscape.output.svg.inkscape">
  <defs
     id="defs1308">
    <inkscape:perspective
       sodipodi:type="inkscape:persp3d"
       inkscape:vp_x="0 : 24 : 1"
       inkscape:vp_y="0 : 1000 : 0"
       inkscape:vp_z="48 : 24 : 1"
       inkscape:persp3d-origin="24 : 16 : 1"
       id="perspective62" />
    <radialGradient
       inkscape:collect="always"
       xlink:href="#linearGradient8662"
       id="radialGradient2494"
       gradientUnits="userSpaceOnUse"
       gradientTransform="matrix(1,0,0,0.536723,6.419148e-15,16.87306)"
       cx="24.837126"
       cy="36.421127"
       fx="24.837126"
       fy="36.421127"
       r="15.644737" />
    <linearGradient
       inkscape:collect="always"
       id="linearGradient3135">
      <stop
         style="stop-color:#000000;stop-opacity:1;"
         offset="0"
         id="stop3137" />
      <stop
         style="stop-color:#000000;stop-opacity:0;"
         offset="1"
         id="stop3139" />
    </linearGradient>
    <linearGradient
       inkscape:collect="always"
       id="linearGradient2521">
      <stop
         style="stop-color:#000000;stop-opacity:1;"
         offset="0"
         id="stop2523" />
      <stop
         style="stop-color:#000000;stop-opacity:0;"
         offset="1"
         id="stop2525" />
    </linearGradient>
    <linearGradient
       inkscape:collect="always"
       id="linearGradient2249">
      <stop
         style="stop-color:#ffffff;stop-opacity:1;"
         offset="0"
         id="stop2251" />
      <stop
         style="stop-color:#ffffff;stop-opacity:0;"
         offset="1"
         id="stop2253" />
    </linearGradient>
    <linearGradient
       id="linearGradient2243">
      <stop
         id="stop2245"
         offset="0"
         style="stop-color:#2a5387;stop-opacity:1" />
      <stop
         id="stop2247"
         offset="1"
         style="stop-color:#3465a4;stop-opacity:1;" />
    </linearGradient>
    <linearGradient
       inkscape:collect="always"
       id="linearGradient2233">
      <stop
         style="stop-color:#ffffff;stop-opacity:1;"
         offset="0"
         id="stop2235" />
      <stop
         style="stop-color:#ffffff;stop-opacity:0;"
         offset="1"
         id="stop2237" />
    </linearGradient>
    <linearGradient
       id="linearGradient3682">
      <stop
         style="stop-color:#497fc6;stop-opacity:1;"
         offset="0"
         id="stop3684" />
      <stop
         style="stop-color:#90b3d9;stop-opacity:1;"
         offset="1"
         id="stop3686" />
    </linearGradient>
    <linearGradient
       id="linearGradient2834">
      <stop
         style="stop-color:#ffffff;stop-opacity:1;"
         offset="0"
         id="stop2836" />
      <stop
         style="stop-color:#b3b3b3;stop-opacity:0.0000000;"
         offset="1.0000000"
         id="stop2838" />
    </linearGradient>
    <linearGradient
       inkscape:collect="always"
       id="linearGradient8662">
      <stop
         style="stop-color:#000000;stop-opacity:1;"
         offset="0"
         id="stop8664" />
      <stop
         style="stop-color:#000000;stop-opacity:0;"
         offset="1"
         id="stop8666" />
    </linearGradient>
    <linearGradient
       id="linearGradient1467">
      <stop
         style="stop-color:#2a5387;stop-opacity:1"
         offset="0"
         id="stop1469" />
      <stop
         style="stop-color:#3465a4;stop-opacity:1;"
         offset="1"
         id="stop1471" />
    </linearGradient>
    <linearGradient
       inkscape:collect="always"
       xlink:href="#linearGradient2233"
       id="linearGradient1621"
       gradientUnits="userSpaceOnUse"
       gradientTransform="translate(-1,1)"
       x1="24.911612"
       y1="22.13604"
       x2="24.911612"
       y2="6.4029131" />
    <linearGradient
       inkscape:collect="always"
       xlink:href="#linearGradient2834"
       id="linearGradient1624"
       gradientUnits="userSpaceOnUse"
       gradientTransform="translate(0,1)"
       x1="19.891792"
       y1="16.114628"
       x2="21.506844"
       y2="85.696808" />
    <linearGradient
       inkscape:collect="always"
       xlink:href="#linearGradient2249"
       id="linearGradient1633"
       gradientUnits="userSpaceOnUse"
       x1="39.421204"
       y1="41.459263"
       x2="-24.130018"
       y2="41.5"
       gradientTransform="translate(0,-20)" />
    <linearGradient
       inkscape:collect="always"
       xlink:href="#linearGradient3682"
       id="linearGradient1635"
       gradientUnits="userSpaceOnUse"
       gradientTransform="translate(0,-23)"
       x1="27.675018"
       y1="45.398964"
       x2="16.0744"
       y2="27.920008" />
    <linearGradient
       inkscape:collect="always"
       xlink:href="#linearGradient2521"
       id="linearGradient2527"
       x1="16.841536"
       y1="24"
       x2="16.841536"
       y2="25.010555"
       gradientUnits="userSpaceOnUse" />
    <linearGradient
       inkscape:collect="always"
       xlink:href="#linearGradient1467"
       id="linearGradient2535"
       x1="5.0271654"
       y1="27.761904"
       x2="5.0271654"
       y2="20.416153"
       gradientUnits="userSpaceOnUse" />
    <radialGradient
       inkscape:collect="always"
       xlink:href="#linearGradient8662"
       id="radialGradient2559"
       gradientUnits="userSpaceOnUse"
       gradientTransform="matrix(1,0,0,0.536723,4.470566e-14,16.87306)"
       cx="24.837126"
       cy="36.421127"
       fx="24.837126"
       fy="36.421127"
       r="15.644737" />
    <radialGradient
       inkscape:collect="always"
       xlink:href="#linearGradient8662"
       id="radialGradient2561"
       gradientUnits="userSpaceOnUse"
       gradientTransform="matrix(1,0,0,0.536723,-1.811862e-13,16.87306)"
       cx="24.837126"
       cy="36.421127"
       fx="24.837126"
       fy="36.421127"
       r="15.644737" />
    <linearGradient
       inkscape:collect="always"
       xlink:href="#linearGradient3682"
       id="linearGradient1364"
       gradientUnits="userSpaceOnUse"
       gradientTransform="translate(0,1)"
       x1="29.033241"
       y1="36.44521"
       x2="14.33379"
       y2="9.4596548" />
    <linearGradient
       inkscape:collect="always"
       xlink:href="#linearGradient2243"
       id="linearGradient1366"
       gradientUnits="userSpaceOnUse"
       gradientTransform="translate(0,4)"
       x1="22.125"
       y1="34.962811"
       x2="22.125"
       y2="6.25" />
    <linearGradient
       inkscape:collect="always"
       xlink:href="#linearGradient3135"
       id="linearGradient3141"
       x1="24.0625"
       y1="41.9375"
       x2="24"
       y2="37.937214"
       gradientUnits="userSpaceOnUse"
       gradientTransform="matrix(1,0,0,0.555556,0,18.66667)" />
  </defs>
  <sodipodi:namedview
     id="base"
     pagecolor="#ffffff"
     bordercolor="#666666"
     borderopacity="0.1372549"
     inkscape:pageopacity="0.0"
     inkscape:pageshadow="2"
     inkscape:zoom="16"
     inkscape:cx="2.245597"
     inkscape:cy="32.041577"
     inkscape:current-layer="layer2"
     showgrid="false"
     inkscape:grid-bbox="true"
     inkscape:document-units="px"
     showguides="false"
     inkscape:guide-bbox="true"
     inkscape:window-width="1041"
     inkscape:window-height="818"
     inkscape:window-x="393"
     inkscape:window-y="30"
     inkscape:grid-points="true"
     stroke="#204a87"
     fill="#2e3436"
     showborder="true"
     inkscape:showpageshadow="false">
    <sodipodi:guide
       orientation="vertical"
       position="14.406922"
       id="guide2257" />
    <sodipodi:guide
       orientation="horizontal"
       position="41.565351"
       id="guide2259" />
    <sodipodi:guide
       orientation="vertical"
       position="29.03324"
       id="guide2261" />
    <sodipodi:guide
       orientation="vertical"
       position="19.964923"
       id="guide2265" />
    <sodipodi:guide
       orientation="horizontal"
       position="31.739108"
       id="guide2267" />
    <sodipodi:guide
       orientation="horizontal"
       position="28.59445"
       id="guide2269" />
    <sodipodi:guide
       orientation="vertical"
       position="24.133423"
       id="guide2271" />
    <sodipodi:guide
       orientation="horizontal"
       position="6.0450673"
       id="guide2266" />
    <inkscape:grid
       id="GridFromPre046Settings"
       type="xygrid"
       originx="0px"
       originy="0px"
       spacingx="0.5px"
       spacingy="0.5px"
       color="#0000ff"
       empcolor="#0000ff"
       opacity="0.2"
       empopacity="0.4"
       empspacing="2" />
  </sodipodi:namedview>
  <metadata
     id="metadata1311">
    <rdf:RDF>
      <cc:Work
         rdf:about="">
        <dc:format>image/svg+xml</dc:format>
        <dc:type
           rdf:resource="http://purl.org/dc/dcmitype/StillImage" />
        <dc:title>Strikeout</dc:title>
        <dc:date>2006-01-04</dc:date>
        <dc:creator>
          <cc:Agent>
            <dc:title>Lapo Calamandrei</dc:title>
          </cc:Agent>
        </dc:creator>
        <dc:source>http://tango-project.org</dc:source>
        <dc:subject>
          <rdf:Bag>
            <rdf:li>text</rdf:li>
            <rdf:li>a</rdf:li>
            <rdf:li>strikeout</rdf:li>
            <rdf:li>strike-out</rdf:li>
            <rdf:li>write</rdf:li>
            <rdf:li>letter</rdf:li>
          </rdf:Bag>
        </dc:subject>
        <cc:license
           rdf:resource="http://creativecommons.org/licenses/publicdomain/" />
      </cc:Work>
      <cc:License
         rdf:about="http://creativecommons.org/licenses/publicdomain/">
        <cc:permits
           rdf:resource="http://creativecommons.org/ns#Reproduction" />
        <cc:permits
           rdf:resource="http://creativecommons.org/ns#Distribution" />
        <cc:permits
           rdf:resource="http://creativecommons.org/ns#DerivativeWorks" />
      </cc:License>
    </rdf:RDF>
  </metadata>
  <g
     inkscape:groupmode="layer"
     id="layer5"
     inkscape:label="Shadow"
     style="display:inline">
    <path
       sodipodi:type="arc"
       style="opacity:0.15;color:#000000;fill:url(#radialGradient2494);fill-opacity:1;fill-rule:evenodd;stroke:none;stroke-width:1;stroke-linecap:butt;stroke-linejoin:miter;marker:none;marker-start:none;marker-mid:none;marker-end:none;stroke-miterlimit:10;stroke-dasharray:none;stroke-dashoffset:0;stroke-opacity:1;visibility:visible;display:inline;overflow:visible"
       id="path2492"
       sodipodi:cx="24.837126"
       sodipodi:cy="36.421127"
       sodipodi:rx="15.644737"
       sodipodi:ry="8.3968935"
       d="M 40.481863 36.421127 A 15.644737 8.3968935 0 1 1  9.1923885,36.421127 A 15.644737 8.3968935 0 1 1  40.481863 36.421127 z"
       transform="matrix(1.470144,0,0,0.535474,-12.76416,20.91534)"
       inkscape:r_cx="true"
       inkscape:r_cy="true" />
  </g>
  <g
     inkscape:groupmode="layer"
     id="layer2"
     inkscape:label="A"
     style="display:inline">
    <path
       style="fill:url(#linearGradient1364);fill-opacity:1;fill-rule:evenodd;stroke:url(#linearGradient1366);stroke-width:1;stroke-linecap:butt;stroke-linejoin:miter;stroke-miterlimit:4;stroke-dasharray:none;stroke-opacity:1"
       d="M 20,4.5 L 5,41.5 L 11,41.5 L 14.25,33.5 L 33.75,33.5 L 37,41.5 L 43,41.5 L 28,4.5 L 20,4.5 z M 24,9.5 L 31.71875,28.5 L 16.28125,28.5 L 24,9.5 z "
       id="path2211" />
    <path
       sodipodi:nodetypes="ccccccccc"
       id="path2237"
       d="M 10.5,40.5 L 6.6462632,40.5 L 20.682829,5.5 L 27.353737,5.5 L 41.682829,40.5 L 37.865658,40.5 L 34.403563,32.469062 L 13.523417,32.368272 C 13.523417,32.368272 10.5,40.5 10.5,40.5 z "
       style="font-size:54.8693924px;font-style:normal;font-variant:normal;font-weight:bold;font-stretch:normal;text-align:start;line-height:125%;writing-mode:lr-tb;text-anchor:start;opacity:0.6;fill:none;fill-opacity:1;stroke:url(#linearGradient1624);stroke-width:1;stroke-linecap:butt;stroke-linejoin:miter;stroke-miterlimit:4;stroke-dasharray:none;stroke-opacity:1;display:inline;font-family:Bitstream Vera Sans" />
    <path
       style="opacity:0.46703297;fill:none;fill-opacity:1;fill-rule:evenodd;stroke:url(#linearGradient1621);stroke-width:1;stroke-linecap:butt;stroke-linejoin:miter;stroke-miterlimit:4;stroke-dasharray:none;stroke-opacity:1"
       d="M 14.68934,29.5 L 33.258883,29.5 L 24.041631,6.8110299 L 14.68934,29.5 z "
       id="path2239"
       sodipodi:nodetypes="cccc" />
    <path
       style="opacity:0.16470588;fill:url(#linearGradient2527);fill-opacity:1;fill-rule:evenodd;stroke:none;stroke-width:1;stroke-linecap:butt;stroke-linejoin:miter;stroke-miterlimit:4;stroke-dasharray:none;stroke-opacity:1;display:inline"
       d="M 12.34375,22 L 10.75,26 C 10.75,26 17.84375,26 17.84375,26 L 19.46875,22 L 12.34375,22 z M 28.53125,22 L 30.15625,26 L 37.25,26 L 35.65625,22 L 28.53125,22 z "
       id="path2510"
       sodipodi:nodetypes="cccccccccc" />
    <rect
       style="color:#000000;fill:url(#linearGradient1635);fill-opacity:1;fill-rule:evenodd;stroke:url(#linearGradient2535);stroke-width:1;stroke-linecap:round;stroke-linejoin:round;marker:none;marker-start:none;marker-mid:none;marker-end:none;stroke-miterlimit:4;stroke-dasharray:none;stroke-dashoffset:0;stroke-opacity:1;visibility:visible;display:inline;overflow:visible"
       id="rect2331"
       width="39"
       height="3"
       x="4.5"
       y="20.5" />
    <path
       style="opacity:0.8;fill:none;fill-opacity:1;fill-rule:evenodd;stroke:url(#linearGradient1633);stroke-width:1;stroke-linecap:square;stroke-linejoin:miter;stroke-miterlimit:4;stroke-dasharray:none;stroke-opacity:1;display:inline"
       d="M 5.5,21.5 L 42.5,21.5"
       id="path2353"
       sodipodi:nodetypes="cc" />
  </g>
</svg>
